X: 30
T:Banshee, The
T:McMahon's
M:C|
L:1/8
C:James McMahon
R:reel
K:G
~G3D EDEF|~G3B d2Bd|eged BAGA|BAGE EDDE|
~G3D EDEF|~G3B d2Bd|eged BAGA|BAGE EDD2:|
|:eaag egge|dBBA B2Bd|eB~B2 gBfB|eBBA B3z|
eaag egge|dBBA B2Bd|eged BAGA|BAGE EDD2:|

